Sources/FrostedUI/Resources/Icons.xcassets/couponExpired20.imageset/coupon-expired-20.svg

<svg width="20" height="20" viewBox="0 0 20 20" fill="none" xmlns="http://www.w3.org/2000/svg" data-fui-icon="true">
  <path
    d="M7.11133 0.5C7.42414 0.5 7.70383 0.694334 7.81348 0.987305C8.14415 1.87081 8.99741 2.5 10 2.5L10.1865 2.49316C11.1074 2.42066 11.8766 1.81548 12.1865 0.987305L12.2354 0.881836C12.3667 0.648578 12.6151 0.5 12.8887 0.5H16L16.2041 0.510742C17.2128 0.613005 18 1.46435 18 2.5V17.5C18 18.6046 17.1046 19.5 16 19.5H12.8887C12.5759 19.5 12.2962 19.3057 12.1865 19.0127C11.8766 18.1845 11.1074 17.5793 10.1865 17.5068L10 17.5C8.99741 17.5 8.14415 18.1292 7.81348 19.0127C7.70383 19.3057 7.42414 19.5 7.11133 19.5H4C2.89543 19.5 2 18.6046 2 17.5V2.5C2 1.39543 2.89543 0.5 4 0.5H7.11133ZM4 2C3.72386 2 3.5 2.22386 3.5 2.5V17.5C3.5 17.7761 3.72386 18 4 18H6.63281C7.2815 16.81 8.5436 16 10 16C11.4564 16 12.7185 16.81 13.3672 18H16C16.2761 18 16.5 17.7761 16.5 17.5V2.5C16.5 2.25829 16.3286 2.05629 16.1006 2.00977L16 2H13.3672C12.7643 3.10591 11.6318 3.88397 10.3057 3.98828L10 4C8.5436 4 7.2815 3.18998 6.63281 2H4ZM12.7197 6.21973C13.0126 5.92683 13.4874 5.92683 13.7803 6.21973C14.0732 6.51262 14.0732 6.98738 13.7803 7.28027L11.0605 10L13.7803 12.7197C14.0732 13.0126 14.0732 13.4874 13.7803 13.7803C13.4874 14.0732 13.0126 14.0732 12.7197 13.7803L10 11.0605L7.28027 13.7803C6.98738 14.0732 6.51262 14.0732 6.21973 13.7803C5.92683 13.4874 5.92683 13.0126 6.21973 12.7197L8.93945 10L6.21973 7.28027C5.92683 6.98738 5.92683 6.51262 6.21973 6.21973C6.51262 5.92683 6.98738 5.92683 7.28027 6.21973L10 8.93945L12.7197 6.21973Z"
    fill="currentColor"
  />
</svg>

<svg xmlns="http://www.w3.org/2000/svg" width="20" height="20" fill="none" data-fui-icon="true" viewBox="0 0 20 20"><path fill="currentColor" d="M7.111.5a.75.75 0 0 1 .702.487A2.33 2.33 0 0 0 10 2.5l.187-.007a2.33 2.33 0 0 0 2-1.506l.048-.105A.75.75 0 0 1 12.89.5H16l.204.01A2 2 0 0 1 18 2.5v15a2 2 0 0 1-2 2h-3.111a.75.75 0 0 1-.702-.487 2.33 2.33 0 0 0-2-1.506L10 17.5c-1.003 0-1.856.63-2.187 1.513a.75.75 0 0 1-.702.487H4a2 2 0 0 1-2-2v-15a2 2 0 0 1 2-2zM4 2a.5.5 0 0 0-.5.5v15a.5.5 0 0 0 .5.5h2.633A3.83 3.83 0 0 1 10 16a3.83 3.83 0 0 1 3.367 2H16a.5.5 0 0 0 .5-.5v-15a.5.5 0 0 0-.4-.49L16 2h-2.633a3.83 3.83 0 0 1-3.061 1.988L10 4a3.83 3.83 0 0 1-3.367-2zm8.72 4.22a.75.75 0 1 1 1.06 1.06L11.06 10l2.72 2.72a.75.75 0 1 1-1.06 1.06L10 11.06l-2.72 2.72a.75.75 0 1 1-1.06-1.06L8.94 10 6.22 7.28a.75.75 0 1 1 1.06-1.06L10 8.94z"/></svg>
